X:159
T:Paddy Fahey's No. 3                                                                               
N:Paddy Fahey                                                                                       
M:4/4                                                                                               
L:1/8                                                                                               
K:A                                                                                                 
AGED B,CDB, | E2B,E GEBG | AGEF GABc | ~d2cB AcBG |                                                 
AGED B,CDB, | E2B,E GEBG | AGEF GABA | GEDB, A,2(3EFG :|                                            
|: A2 ce dcBG | AGED B,CDB, | EA~A2 EAce | dcBG EAA2 |                                              
EAce ~d2BG | AGEF =GFGA | Bded Bcdf |edBG A3 z:|
